16x16/apps/ghidra.svg

<svg xmlns="http://www.w3.org/2000/svg" width="16" height="16" version="1">
 <path style="fill:#4f4f4f" d="m 8,0 c 2.949233,0 5.515877,1.5799506 6.903159,3.9430788 0.697475,1.1880948 0.292821,2.7349584 0.292821,4.2177252 0,4.432 -2.844382,7.316583 -7.276382,7.316583 -2.4006032,0 -4.4673176,-0.524193 -5.9312445,-2.188101 C 0.74957468,11.881282 0,10.031397 0,8 0,3.568 3.568,0 8,0 Z"/>
 <path style="fill:#f04339" d="M 10.589844 1.0058594 C 10.28399 1.0155202 9.9901615 1.0572186 9.7207031 1.140625 C 8.6518247 1.4762757 7.6500956 2.3517268 7.0410156 3.1464844 L 6.7109375 3.578125 C 6.7109375 3.578125 6.2240416 3.3850143 5.96875 3.3886719 C 5.5723564 3.3967239 5.3406121 3.5737453 5.0917969 3.8398438 C 4.9184197 4.0252886 4.7991714 4.238616 4.7246094 4.5 C 4.4048622 5.6209032 4.0560574 6.1817172 2.3847656 6.65625 C 1.7059294 6.8489932 1.2892697 7.2544412 1.0957031 7.90625 C 0.97054554 8.3277096 0.9682027 9.0088967 1.0917969 9.3046875 C 1.2262901 9.6265751 1.5893551 10.137792 1.6542969 10.097656 C 1.6841901 10.07918 1.7300323 9.9230988 1.7558594 9.75 C 1.781687 9.5769004 1.8445499 9.3336404 1.8964844 9.2089844 L 1.9902344 8.9824219 L 2.2480469 9.2324219 C 2.4385096 9.4184035 2.6197837 9.5144475 2.9550781 9.6074219 C 3.2032089 9.6762259 3.428984 9.7324219 3.4570312 9.7324219 C 3.5553772 9.7324219 3.5070337 9.5974151 3.3105469 9.3261719 C 3.1143131 9.0552795 3.0577171 8.875 3.1699219 8.875 C 3.2018299 8.875 3.340042 8.920657 3.4785156 8.9785156 C 3.664146 9.0560766 3.8285754 9.0727665 4.0996094 9.0390625 C 4.3017918 9.0139183 4.4899264 8.9790731 4.5195312 8.9609375 C 4.5491352 8.9428015 4.4522076 8.8232553 4.3027344 8.6953125 C 4.1532612 8.5673685 4.0492988 8.4428627 4.0722656 8.4199219 C 4.0952296 8.3969819 4.3029851 8.3789062 4.5332031 8.3789062 C 5.0220135 8.3789062 5.0254796 8.2400473 5.2304688 7.7675781 C 5.2974917 7.6130997 5.3790946 7.4863281 5.4121094 7.4863281 C 5.4451254 7.4863281 5.4850181 7.6303922 5.5019531 7.8066406 C 5.5194891 7.9891278 5.637599 8.3383199 5.7753906 8.6171875 C 5.9945414 9.0607151 6.0167439 9.156448 6.0136719 9.6347656 C 6.0117919 9.925226 5.9886995 10.367178 5.9609375 10.617188 C 5.8897775 11.257986 5.8543416 11.275898 4.84375 11.222656 C 4.348232 11.196556 3.7304688 11.060547 3.7304688 11.060547 C 3.7304688 11.060547 4.9599725 12.286976 5.2988281 12.490234 C 5.4936889 12.607118 5.8536455 12.754497 6.0976562 12.818359 C 6.5328383 12.932255 6.5439582 12.931869 6.7246094 12.800781 C 6.9601044 12.629895 7.3411577 11.84581 8.0078125 10.162109 C 8.2956477 9.4351528 8.5595916 8.7741386 8.59375 8.6933594 C 8.628774 8.6105346 8.7360893 8.5311224 8.8398438 8.5097656 C 9.3583133 8.4030448 9.9607492 8.2851648 10.25 8 C 10.884378 7.4495496 10.770233 7.1269394 10.730469 6.6621094 C 10.730469 6.6621094 11.207002 6.3167061 11.886719 6.5605469 C 12.601456 6.8116485 12.985319 7.1403271 13.21875 8.0546875 C 13.697953 9.6061659 13.230079 11.683933 12.167969 12.775391 C 11.597489 13.361634 10.585348 13.93551 9.6054688 14.226562 C 9.1251212 14.36924 8.8589411 14.40356 8.0664062 14.423828 C 7.0958543 14.448648 6.6139215 14.392807 5.7832031 14.160156 C 4.4319767 13.842451 3.2200628 13.173154 1.8496094 13.105469 A 8 8 0 0 0 6.4023438 15.837891 A 8 8 0 0 0 6.4199219 15.841797 A 8 8 0 0 0 7.1679688 15.955078 C 7.1990834 15.958214 7.2304746 15.96215 7.2617188 15.964844 A 8 8 0 0 0 8 16 C 8.2321655 16 8.4604649 15.984037 8.6875 15.964844 A 8 8 0 0 0 9.1601562 15.908203 C 9.2540604 15.894643 9.3486068 15.882004 9.4414062 15.865234 A 8 8 0 0 0 9.9785156 15.746094 C 10.057568 15.726096 10.136763 15.705913 10.214844 15.683594 A 8 8 0 0 0 10.787109 15.494141 C 10.838577 15.475091 10.890451 15.457569 10.941406 15.4375 A 8 8 0 0 0 11.625 15.130859 C 11.626294 15.130203 11.627613 15.129563 11.628906 15.128906 A 8 8 0 0 0 11.630859 15.128906 A 8 8 0 0 0 12.304688 14.742188 C 12.310336 14.738584 12.316627 14.736039 12.322266 14.732422 A 8 8 0 0 0 12.328125 14.728516 A 8 8 0 0 0 12.972656 14.267578 A 8 8 0 0 0 15.958984 8.8066406 C 15.959242 8.8040462 15.960682 8.8014233 15.960938 8.7988281 A 8 8 0 0 0 16 8 C 16 7.8245304 15.991619 7.6509936 15.980469 7.4785156 C 15.978381 7.4464611 15.977032 7.414768 15.974609 7.3828125 A 8 8 0 0 0 15.890625 6.7011719 C 15.883473 6.6572671 15.875037 6.6139754 15.867188 6.5703125 A 8 8 0 0 0 15.740234 6 C 15.722465 5.933035 15.708516 5.8652203 15.689453 5.7988281 A 8 8 0 0 0 15.494141 5.2109375 C 15.489023 5.1972893 15.483658 5.1835724 15.478516 5.1699219 C 15.468102 5.1424989 15.454048 5.1014548 15.443359 5.0722656 A 8 8 0 0 0 14.591797 3.4824219 C 14.397547 3.4531621 14.152344 3.4160156 14.152344 3.4160156 C 14.152344 3.4160156 14.309414 3.3210626 14.427734 3.25 A 8 8 0 0 0 13.361328 2.0742188 C 12.300512 2.0252796 11.177805 2.1076473 9.859375 2.9472656 C 10.567183 1.6878406 11.562859 1.5060987 12.671875 1.5136719 A 8 8 0 0 0 12.226562 1.2167969 C 11.785362 1.1076201 11.335334 1.0231987 10.898438 1.0078125 C 10.794061 1.0041325 10.691795 1.0026406 10.589844 1.0058594 z M 5.9902344 4.1992188 L 6 5.1054688 L 5.1992188 5.4003906 C 5.5366288 5.0812454 5.8033156 4.6825271 5.9902344 4.1992188 z M 2.5996094 7.1992188 L 2.5996094 7.5996094 C 2.3329426 7.4569034 2.0674478 7.4630767 1.8007812 7.5332031 L 2.5996094 7.1992188 z"/>
 <path style="fill:#ff9e18" d="m 12.521875,6.8773436 c 0.327703,0.2390772 0.544428,0.584042 0.696094,1.1781252 0.479203,1.5514784 0.01211,3.6288542 -1.05,4.7203122 -0.57048,0.586243 -1.583402,1.159729 -2.5632814,1.450781 C 9.12434,14.36924 8.8581596,14.403169 8.0656248,14.423438 7.0950728,14.448258 6.6135308,14.39281 5.7828124,14.160156 4.4250808,13.840921 3.2090712,13.16528 1.8304688,13.103125 c 0,0 1.5651472,0.987223 2.685156,1.345313 3.2242984,1.132768 6.0156882,1.104057 7.8507812,-0.567969 2.566753,-2.554592 1.65013,-6.556887 0.155469,-7.0031254 z"/>
 <path style="opacity:0.73999999;fill:#fe7e40" d="M 10.589844 1.0058594 C 10.28399 1.0155202 9.9901615 1.0572186 9.7207031 1.140625 C 8.6518247 1.4762757 7.6500956 2.3517268 7.0410156 3.1464844 L 6.7109375 3.578125 C 8.5400584 2.1467851 10.357083 1.1594951 12.611328 1.46875 A 8 8 0 0 0 12.226562 1.2167969 C 11.785362 1.1076201 11.335334 1.0231987 10.898438 1.0078125 C 10.794061 1.0041325 10.691795 1.0026406 10.589844 1.0058594 z M 12.820312 2.0566406 C 11.917791 2.0698302 10.954578 2.2498048 9.859375 2.9472656 C 11.0279 2.5841315 12.475928 2.4687491 13.832031 2.5332031 A 8 8 0 0 0 13.361328 2.0742188 C 13.181765 2.0659561 13.004267 2.053952 12.820312 2.0566406 z M 10.541016 5.3789062 C 10.513736 6.7388011 10.047037 7.8140464 8.734375 8.53125 C 8.7212955 8.5429995 8.7066389 8.5653321 8.6933594 8.578125 C 8.7372393 8.5455788 8.7885297 8.5203281 8.8398438 8.5097656 C 9.0807253 8.4601828 9.3370975 8.4059047 9.5742188 8.3359375 C 9.5742188 8.3359375 9.5722656 8.3339844 9.5722656 8.3339844 C 9.7089416 8.2938224 9.8394993 8.2497465 9.9550781 8.1953125 C 10.009458 8.1697005 10.060464 8.1413641 10.107422 8.1113281 C 10.110422 8.1094081 10.114287 8.1074188 10.117188 8.1054688 C 10.165938 8.0734968 10.21161 8.0378526 10.25 8 C 10.884379 7.4495496 10.770233 7.1269394 10.730469 6.6621094 C 10.730469 6.6621094 10.732422 6.6601562 10.732422 6.6601562 L 10.541016 5.3789062 z M 8.6699219 8.6035156 C 7.8535157 9.4179772 6.6858943 12.080941 6.2792969 12.064453 C 5.7939561 12.044773 3.7304688 11.060547 3.7304688 11.060547 C 3.7304688 11.060547 4.9599725 12.286976 5.2988281 12.490234 C 5.4936889 12.607118 5.8536454 12.754497 6.0976562 12.818359 C 6.5328383 12.932255 6.5439582 12.931868 6.7246094 12.800781 C 6.9601046 12.629893 7.3411577 11.84581 8.0078125 10.162109 C 8.2956477 9.4351548 8.5595916 8.7741386 8.59375 8.6933594 C 8.6074059 8.6610659 8.6387822 8.6316775 8.6699219 8.6035156 z"/>
</svg>

<svg xmlns="http://www.w3.org/2000/svg" width="16" height="16" version="1"><path style="fill:#4f4f4f" d="M8 0c2.95 0 5.516 1.58 6.903 3.943.698 1.188.293 2.735.293 4.218 0 4.432-2.844 7.316-7.276 7.316-2.401 0-4.468-.524-5.932-2.188A7.974 7.974 0 0 1 0 8c0-4.432 3.568-8 8-8z"/><path style="fill:#f04339" d="M10.59 1.006a3.3 3.3 0 0 0-.87.135c-1.068.335-2.07 1.21-2.679 2.005l-.33.432s-.487-.193-.742-.19c-.397.009-.628.186-.877.452a1.566 1.566 0 0 0-.367.66c-.32 1.12-.669 1.682-2.34 2.156-.68.193-1.096.598-1.29 1.25-.124.422-.127 1.103-.003 1.399.134.322.497.833.562.793.03-.019.076-.175.102-.348a2.78 2.78 0 0 1 .14-.541l.094-.227.258.25c.19.186.372.282.707.375.248.07.474.125.502.125.098 0 .05-.135-.146-.406-.197-.27-.253-.451-.141-.451.032 0 .17.046.309.104.185.077.35.094.62.06.203-.025.39-.06.42-.078.03-.018-.067-.138-.216-.266-.15-.128-.254-.252-.23-.275.022-.023.23-.041.46-.041.489 0 .492-.139.697-.611.067-.155.15-.282.182-.282.033 0 .073.144.09.32.017.183.136.532.273.811.22.444.242.54.239 1.018-.002.29-.025.732-.053.982-.071.641-.107.659-1.117.606-.496-.026-1.114-.162-1.114-.162s1.23 1.226 1.569 1.43c.195.116.555.263.799.327.435.114.446.114.627-.017.235-.171.616-.955 1.283-2.639.288-.727.552-1.388.586-1.469.035-.082.142-.162.246-.183.518-.107 1.12-.225 1.41-.51.634-.55.52-.873.48-1.338 0 0 .477-.345 1.157-.101.714.25 1.098.58 1.332 1.494.479 1.551.011 3.629-1.051 4.72-.57.587-1.583 1.16-2.563 1.452-.48.142-.746.177-1.539.197-.97.025-1.452-.031-2.283-.264-1.351-.318-2.563-.987-3.933-1.055a8 8 0 0 0 4.552 2.733 8 8 0 0 0 .018.004 8 8 0 0 0 .748.113l.094.01A8 8 0 0 0 8 16c.232 0 .46-.016.688-.035a8 8 0 0 0 .472-.057c.094-.013.189-.026.281-.043a8 8 0 0 0 .538-.119c.079-.02.158-.04.236-.062a8 8 0 0 0 .572-.19c.052-.019.103-.036.154-.056a8 8 0 0 0 .684-.307l.004-.002a8 8 0 0 0 .002 0 8 8 0 0 0 .674-.387l.017-.01a8 8 0 0 0 .006-.003 8 8 0 0 0 .645-.461 8 8 0 0 0 2.986-5.461l.002-.008A8 8 0 0 0 16 8c0-.175-.008-.349-.02-.521l-.005-.096a8 8 0 0 0-.084-.682l-.024-.13A8 8 0 0 0 15.74 6c-.018-.067-.031-.135-.05-.201a8 8 0 0 0-.196-.588l-.015-.041-.036-.098a8 8 0 0 0-.851-1.59l-.44-.066.276-.166a8 8 0 0 0-1.067-1.176c-1.06-.049-2.183.034-3.502.873.708-1.26 1.704-1.44 2.813-1.433a8 8 0 0 0-.445-.297 6.567 6.567 0 0 0-1.329-.21 4.613 4.613 0 0 0-.308-.001zm-4.6 3.193.01.906-.8.295a3.23 3.23 0 0 0 .79-1.2zm-3.39 3v.4c-.267-.142-.533-.136-.8-.066l.8-.334z"/><path style="fill:#ff9e18" d="M12.522 6.877c.328.24.544.584.696 1.178.48 1.552.012 3.63-1.05 4.72-.57.587-1.583 1.16-2.563 1.452-.48.142-.747.176-1.54.196-.97.025-1.451-.03-2.282-.263-1.358-.32-2.574-.995-3.953-1.057 0 0 1.566.987 2.686 1.345 3.224 1.133 6.015 1.104 7.85-.568 2.567-2.554 1.65-6.556.156-7.003z"/><path style="opacity:.73999999;fill:#fe7e40" d="M10.59 1.006a3.3 3.3 0 0 0-.87.135c-1.068.335-2.07 1.21-2.679 2.005l-.33.432c1.83-1.431 3.646-2.419 5.9-2.11a8 8 0 0 0-.384-.251 6.567 6.567 0 0 0-1.329-.21 4.613 4.613 0 0 0-.308-.001zm2.23 1.05c-.902.014-1.865.194-2.96.891 1.168-.363 2.616-.478 3.972-.414a8 8 0 0 0-.47-.459c-.18-.008-.358-.02-.542-.017zM10.541 5.38c-.027 1.36-.494 2.435-1.807 3.152-.013.012-.027.034-.04.047a.382.382 0 0 1 .146-.068c.24-.05.497-.104.734-.174l-.002-.002c.137-.04.267-.084.383-.139.054-.025.105-.054.152-.084l.01-.006A.87.87 0 0 0 10.25 8c.634-.55.52-.873.48-1.338l.002-.002-.191-1.281zM8.67 8.604c-.816.814-1.984 3.477-2.39 3.46-.486-.02-2.55-1.003-2.55-1.003s1.23 1.226 1.569 1.43c.195.116.555.263.799.327.435.114.446.114.627-.017.235-.171.616-.955 1.283-2.639.288-.727.552-1.388.586-1.469a.291.291 0 0 1 .076-.09z"/></svg>
